X:93
M:6/8
L:1/8
Q:3/8=70
K:D
(3d/4c/4B/4|A2D F2A|F2E F2 (3d/c/B/|A2D F2A|E2D D2 (3d/c/B/|
|:A,|D>EF (G>FG)|AGF G>AB|(B>A)d A>G(F/G/)|AFD E2 (D/A,/)|

